src/components/careers/InTheMediaSection/logos/GizmodoSVG.svg

<svg viewBox="0 0 169 25" fill="none" xmlns="http://www.w3.org/2000/svg">
    <path
        d="M28.1647 21.5251V3.24024C28.1647 2.29074 28.381 1.57792 28.8143 1.10326C29.2469 0.628414 29.8076 0.390625 30.4936 0.390625C31.2017 0.390625 31.7744 0.626031 32.2132 1.09556C32.6513 1.56509 32.871 2.27974 32.871 3.24024V21.5251C32.871 22.4852 32.6512 23.203 32.2132 23.6778C31.7744 24.153 31.2017 24.3906 30.4936 24.3906C29.8175 24.3906 29.2605 24.1505 28.822 23.6701C28.3836 23.1898 28.1645 22.4744 28.1645 21.5251H28.1647ZM156.021 5.26007C152.085 5.26007 148.883 8.46262 148.883 12.3983C148.883 16.3337 152.085 19.536 156.021 19.536C159.956 19.536 163.159 16.3337 163.159 12.3983C163.159 8.46262 159.956 5.26026 156.021 5.26026L156.021 5.26007ZM156.021 24.3906C149.408 24.3906 144.028 19.0106 144.028 12.3985C144.028 5.78534 149.408 0.405475 156.021 0.405475C162.634 0.405475 168.013 5.78534 168.013 12.3983C168.013 19.0106 162.634 24.3906 156.021 24.3906ZM102.184 5.26007C98.249 5.26007 95.047 8.46262 95.047 12.3983C95.047 16.3337 98.249 19.536 102.184 19.536C106.121 19.536 109.322 16.3337 109.322 12.3983C109.322 8.46262 106.121 5.26026 102.184 5.26026V5.26007ZM102.184 24.3906C95.5717 24.3906 90.1922 19.0106 90.1922 12.3985C90.1922 5.78534 95.5717 0.405475 102.184 0.405475C108.797 0.405475 114.177 5.78534 114.177 12.3983C114.177 19.0106 108.797 24.3906 102.184 24.3906ZM129.043 19.4772C128.463 19.5151 127.838 19.5215 127.167 19.5215H124.018V5.25971H127.167C127.838 5.25971 128.463 5.26704 129.043 5.30407C131.125 5.55286 132.933 6.69872 134.069 8.34638C134.889 9.53066 135.328 10.9362 135.33 12.3763L135.33 12.3882V12.3934L135.33 12.4049C135.328 13.8452 134.889 15.2508 134.069 16.4352C132.933 18.0829 131.125 19.228 129.043 19.4772ZM140.186 12.3906V12.3873C140.184 9.74066 139.321 7.2931 137.865 5.30719C135.746 2.41889 132.37 0.512545 128.549 0.400159C128.431 0.396492 128.312 0.390625 128.193 0.390625L122.171 0.398325C121.143 0.398325 120.398 0.632631 119.938 1.10069C119.477 1.56912 119.247 2.32575 119.247 3.37151V21.4097C119.247 22.4557 119.477 23.2119 119.938 23.6807C120.398 24.1494 121.143 24.3833 122.171 24.3833L128.193 24.3906C128.312 24.3906 128.431 24.3848 128.549 24.3815C132.37 24.2689 135.746 22.3625 137.865 19.4742C139.322 17.4881 140.185 15.0406 140.186 12.3939V12.3906H140.186ZM83.4003 0.497511C82.5239 0.225254 81.5772 0.569746 81.0668 1.34746L73.8359 12.362L66.6053 1.34746C66.0954 0.569746 65.1481 0.225438 64.2718 0.497511C63.3958 0.770134 62.7975 1.59607 62.7975 2.53219V22.1084C62.7975 23.2831 63.7291 24.2352 64.8775 24.2352C66.0267 24.2352 66.958 23.2831 66.958 22.1084V9.51864L72.092 17.3384L72.1023 17.3543L72.1087 17.3635C72.1148 17.3732 72.1221 17.3818 72.1285 17.3915C72.1604 17.4383 72.1934 17.485 72.2299 17.5294C72.2458 17.5494 72.2624 17.567 72.2788 17.5857C72.3076 17.6187 72.3355 17.6517 72.3661 17.6828C72.3934 17.7107 72.4228 17.7371 72.4519 17.7639C72.4728 17.7831 72.4939 17.8035 72.5159 17.8222C72.557 17.8567 72.5984 17.8875 72.6415 17.9179C72.6538 17.9263 72.6646 17.9366 72.6771 17.9448C72.6785 17.9461 72.6802 17.9467 72.6824 17.9481C72.7282 17.9793 72.7755 18.0074 72.8239 18.0349C72.8371 18.0426 72.8503 18.0517 72.8637 18.0587C72.8996 18.0785 72.9368 18.0948 72.9744 18.1122C73.1817 18.21 73.404 18.2721 73.6319 18.2959C73.6761 18.2996 73.7201 18.3005 73.7635 18.3023C73.7877 18.3033 73.8123 18.3055 73.8359 18.3055C73.8607 18.3055 73.8843 18.3033 73.9085 18.3023C73.9527 18.3005 73.9965 18.2996 74.0405 18.2959C74.2685 18.2722 74.4908 18.2101 74.6982 18.1124C74.7352 18.0948 74.773 18.0785 74.8085 18.0585C74.8225 18.0517 74.8349 18.0426 74.8489 18.0349C74.8971 18.0074 74.9442 17.9791 74.99 17.9481C74.9922 17.9467 74.9941 17.9463 74.9959 17.9448C75.008 17.9366 75.0188 17.9263 75.0307 17.9179C75.0738 17.8875 75.1162 17.8567 75.1567 17.8222C75.1789 17.8035 75.1994 17.7831 75.2214 17.7632C75.2498 17.7371 75.279 17.7107 75.3063 17.6832C75.3375 17.6515 75.3652 17.6183 75.3938 17.5853C75.4104 17.567 75.4273 17.5488 75.4427 17.5294C75.4788 17.4848 75.5118 17.4383 75.5441 17.3915C75.5505 17.3818 75.5578 17.3732 75.5643 17.3637L75.5701 17.3543C75.5738 17.3488 75.5769 17.3437 75.5808 17.3384L80.714 9.51864V22.1084C80.714 23.2831 81.6448 24.2352 82.7953 24.2352C83.9432 24.2352 84.8756 23.2831 84.8756 22.1084V2.53201C84.8756 1.59589 84.2766 0.769951 83.4003 0.497328V0.497511ZM55.7172 23.6609H40.1662C39.3481 23.6609 38.4393 23.1492 38.1027 22.3528C37.7659 21.5571 37.697 20.474 38.4212 19.6106L51.1422 4.85086H40.6328C39.4838 4.85086 38.5519 3.85571 38.5519 2.62808C38.5519 1.40027 39.4838 0.650598 40.6328 0.650598H54.8046C55.6223 0.650598 56.4693 0.780768 57.2092 1.59112C57.8854 2.33217 57.8555 3.93088 57.0981 4.88441L44.807 19.2159H55.7174C56.8664 19.2159 57.703 20.2111 57.703 21.4382C57.703 22.6656 56.8664 23.6609 55.7174 23.6609H55.7172ZM12.6598 24.3906C9.20889 24.3906 6.07931 23.0224 3.84736 20.538C1.88107 18.3489 0.753906 15.465 0.753906 12.6247C0.753906 3.71234 8.16258 0.390625 12.8329 0.390625C17.4248 0.390625 20.7955 2.64238 20.9364 2.7379C21.9706 3.43971 22.2473 4.85783 21.5547 5.90524C20.8635 6.94898 19.4701 7.23132 18.437 6.53739C18.3767 6.49889 15.9858 4.95647 12.8329 4.95647C9.90557 4.95647 5.86866 6.88848 5.86866 12.6247C5.86866 15.8882 8.29605 19.737 12.7468 19.737C15.2508 19.737 17.0114 19.0696 18.0348 18.4186V15.0246H14.5669C13.3221 15.0246 12.313 14.0027 12.313 12.7417C12.313 11.4811 13.3222 10.459 14.5669 10.459H20.2889C21.5338 10.459 22.5428 11.4811 22.5428 12.7417V19.5318C22.5431 19.8366 22.4828 20.1384 22.3654 20.4196C22.248 20.7009 22.0759 20.956 21.859 21.1701C20.3476 22.6557 17.0317 24.3906 12.6598 24.3906Z"
        fill="#0D102B" />
</svg>

<svg viewBox="0 0 169 25" fill="none" xmlns="http://www.w3.org/2000/svg">
    <path
        d="M28.2 21.5V3.2c0-1 .2-1.6.6-2.1.4-.5 1-.7 1.7-.7s1.3.2 1.7.7c.5.5.7 1.2.7 2.1v18.3c0 1-.2 1.7-.7 2.2-.4.5-1 .7-1.7.7s-1.2-.2-1.7-.7c-.4-.5-.6-1.2-.6-2.2ZM156 5.3a7.1 7.1 0 1 0 0 14.3 7.1 7.1 0 0 0 0-14.3Zm0 19a12 12 0 1 1 0-24 12 12 0 0 1 0 24Zm-53.8-19a7.1 7.1 0 1 0 0 14.3 7.1 7.1 0 0 0 0-14.3Zm0 19a12 12 0 1 1 0-24 12 12 0 0 1 0 24Zm26.8-4.8h-5V5.3h5a7.1 7.1 0 0 1 6.3 7v.1a7.1 7.1 0 0 1-6.3 7Zm11.2-7.1a12 12 0 0 0-11.7-12h-6.3c-1 0-1.8.2-2.3.7-.4.5-.7 1.2-.7 2.3v18c0 1 .3 1.8.7 2.3.5.4 1.2.7 2.3.7h6.3a12 12 0 0 0 11.7-12ZM83.4.5a2 2 0 0 0-2.3.8l-7.3 11-7.2-11a2 2 0 0 0-2.3-.8c-.9.3-1.5 1.1-1.5 2v19.6c0 1.2 1 2.1 2 2.1 1.2 0 2.2-1 2.2-2V9.4l5 7.8h.1l.1.2.2.2.1.1.1.1.2.1.2.1.6.2h.4c.3 0 .5 0 .7-.2h.1l.2-.2h.2v-.1l.1-.1v-.1h.1l.1-.2 5.2-7.9v12.6c0 1.2 1 2.1 2.1 2.1s2-1 2-2V2.4c0-.9-.5-1.7-1.4-2ZM55.7 23.7H40.2c-.9 0-1.8-.6-2.1-1.3-.3-.8-.4-2 .3-2.8L51.1 5H40.6c-1.1 0-2-1-2-2.3 0-1.2.9-2 2-2h14.2c.8 0 1.7.2 2.4 1 .7.7.7 2.3-.1 3.3L44.8 19.2h11c1 0 1.9 1 1.9 2.2 0 1.3-.8 2.3-2 2.3Zm-43 .7c-3.5 0-6.6-1.4-8.9-3.9-2-2.2-3-5-3-7.9C.8 3.7 8.2.4 12.8.4s8 2.2 8.1 2.3c1 .7 1.3 2.2.7 3.2-.7 1-2.1 1.3-3.2.6 0 0-2.4-1.5-5.6-1.5-2.9 0-7 1.9-7 7.6 0 3.3 2.5 7.1 7 7.1 2.5 0 4.2-.6 5.2-1.3V15h-3.4c-1.3 0-2.3-1-2.3-2.3 0-1.2 1-2.2 2.3-2.2h5.7c1.2 0 2.2 1 2.2 2.2v6.8a2.3 2.3 0 0 1-.6 1.7 13.6 13.6 0 0 1-9.2 3.2Z"
        fill="#0D102B" />
</svg>
